X: 022195
T: Billy O'Rourke
S: Fitzmaurice Collection
L: 1/8
M: 9/8
R: slip jig
Q: 1/4=165
K: D
d2d dfd cBA | d2d dfa gec | 
d2d dfd cBA | BcB Bcd ecA :|
f/g/ag fed cBA | f/g/ag fed efg | 
f/g/ag fed cBA | BcB Bcd ecA :|
